local/share/icons/dracula-icons-main/scalable/apps/pdfshuffler.svg

<?xml version="1.0" encoding="UTF-8"?>
<svg xmlns="http://www.w3.org/2000/svg" xmlns:xlink="http://www.w3.org/1999/xlink" width="64" height="64" viewBox="0 0 64 64">
<path fill-rule="nonzero" fill="rgb(37.254902%, 55.294118%, 82.745098%)" fill-opacity="1" d="M 8.464844 1.324219 C 4.519531 1.324219 1.324219 4.519531 1.324219 8.464844 C 1.324219 12.410156 4.519531 15.609375 8.464844 15.609375 C 8.554688 15.609375 8.644531 15.605469 8.730469 15.601562 L 8.730469 1.335938 C 8.644531 1.332031 8.554688 1.324219 8.464844 1.324219 Z M 8.464844 1.324219 "/>
<path fill-rule="nonzero" fill="rgb(100%, 60%, 33.333333%)" fill-opacity="1" d="M 8.730469 1.332031 L 8.730469 15.597656 C 12.566406 15.453125 15.605469 12.304688 15.609375 8.464844 C 15.609375 4.625 12.570312 1.472656 8.730469 1.332031 Z M 8.730469 1.332031 "/>
<path fill-rule="nonzero" fill="rgb(21.568627%, 78.431373%, 44.313725%)" fill-opacity="1" d="M 8.730469 1.332031 L 8.730469 15.597656 C 11.976562 15.453125 14.546875 12.304688 14.550781 8.46875 C 14.550781 4.625 11.980469 1.476562 8.730469 1.332031 Z M 8.730469 1.332031 "/>
<path fill-rule="nonzero" fill="rgb(30.588235%, 46.27451%, 69.803922%)" fill-opacity="1" d="M 8.464844 1.324219 L 8.464844 15.609375 C 11.242188 15.609375 13.492188 12.410156 13.492188 8.464844 C 13.492188 4.519531 11.242188 1.324219 8.464844 1.324219 Z M 8.464844 1.324219 "/>
<path fill-rule="nonzero" fill="rgb(100%, 100%, 100%)" fill-opacity="1" d="M 7.886719 4.5 C 7.804688 4.488281 7.726562 4.539062 7.644531 4.683594 C 7.507812 4.910156 7.449219 5.546875 7.558594 6.15625 C 7.59375 6.367188 7.675781 6.671875 7.78125 7.003906 C 7.699219 7.3125 7.601562 7.640625 7.496094 7.96875 C 7.085938 9.261719 6.203125 10.613281 5.738281 11.34375 C 5.441406 11.800781 4.734375 12.339844 4.671875 12.234375 C 4.613281 12.132812 4.8125 11.894531 5.0625 11.519531 C 5.308594 11.144531 5.945312 10.753906 5.945312 10.753906 C 5.945312 10.753906 5.671875 10.742188 4.980469 11.355469 C 4.285156 11.96875 4.496094 12.273438 4.660156 12.363281 C 4.824219 12.460938 5.285156 12.824219 6.851562 10.109375 C 7.421875 9.117188 7.753906 8.214844 7.945312 7.464844 C 8.144531 7.976562 8.398438 8.496094 8.683594 8.820312 C 8.847656 9.011719 9.0625 9.195312 9.304688 9.363281 C 9.113281 9.398438 8.898438 9.4375 8.601562 9.492188 C 7.523438 9.6875 6.984375 10.113281 6.972656 10.125 C 6.980469 10.121094 8.238281 9.722656 9.570312 9.539062 C 10.097656 9.859375 10.699219 10.105469 11.199219 10.203125 C 11.976562 10.359375 12.191406 10.074219 12.214844 10.039062 C 12.183594 10.0625 12.082031 10.109375 11.761719 10.082031 C 11.503906 10.0625 10.796875 9.859375 10.082031 9.476562 C 11.5625 9.339844 12.074219 9.492188 12.207031 9.597656 C 12.339844 9.703125 12.339844 9.820312 12.339844 9.820312 C 12.339844 9.820312 12.507812 9.65625 12.398438 9.488281 C 12.304688 9.316406 12.15625 9.171875 10.96875 9.210938 C 10.382812 9.226562 10.0625 9.246094 9.761719 9.289062 C 9.398438 9.0625 9.054688 8.796875 8.78125 8.472656 C 8.414062 8.039062 8.191406 7.539062 8.042969 7.050781 C 8.261719 5.996094 8.195312 5.34375 8.195312 5.335938 C 8.195312 5.335938 8.082031 5.839844 7.910156 6.507812 C 7.8125 6.003906 7.78125 5.539062 7.75 5.210938 C 7.691406 4.453125 8.03125 4.664062 8.078125 4.761719 C 8.15625 4.824219 8.191406 5.03125 8.191406 5.03125 C 8.191406 5.03125 8.167969 4.71875 8.03125 4.585938 C 7.980469 4.539062 7.933594 4.507812 7.886719 4.5 Z M 6.972656 10.125 C 6.972656 10.125 6.96875 10.125 6.96875 10.125 C 6.96875 10.125 6.972656 10.125 6.972656 10.125 Z M 6.972656 10.125 "/>
</svg>

<svg width="64" height="64" version="1.1" viewBox="0 0 16.933 16.933" xmlns="http://www.w3.org/2000/svg">
 <g>
  <path transform="scale(.26458)" d="m32 5a27 27 0 0 0-27 27 27 27 0 0 0 27 27 27 27 0 0 0 1-0.03516v-53.914a27 27 0 0 0-1-0.050777z" fill="#5f8dd3" style="paint-order:stroke fill markers"/>
  <path transform="scale(.26458)" d="m33 5.0352v53.914a27 27 0 0 0 26-26.949 27 27 0 0 0-26-26.965z" fill="#ff9955" style="paint-order:stroke fill markers"/>
  <path d="m8.7311 1.3322v14.265a6.0445 7.1437 0 0 0 5.8207-7.1302 6.0445 7.1437 0 0 0-5.8207-7.1344z" fill="#37c871" stroke-width=".24338" style="paint-order:stroke fill markers"/>
  <path d="m8.4665 1.3229v14.287a5.027 7.1436 0 0 0 5.027-7.1436 5.027 7.1436 0 0 0-5.027-7.1436z" fill="#4e76b2" style="paint-order:stroke fill markers"/>
 </g>
 <path d="m7.8851 4.4996c-0.079623-0.012745-0.15824 0.040074-0.24194 0.1827-0.13392 0.22714-0.19561 0.86315-0.085261 1.4749 0.037281 0.20907 0.11692 0.51316 0.22478 0.84487-0.085366 0.31071-0.18099 0.64018-0.28514 0.96721-0.41142 1.2921-1.2951 2.6459-1.7611 3.3744-0.29463 0.45856-1.003 0.99746-1.063 0.89246-0.058927-0.105 0.14065-0.34038 0.3892-0.71751 0.24749-0.375 0.88141-0.76402 0.88141-0.76402s-0.27071-0.01054-0.9639 0.60015c-0.69319 0.6139-0.48334 0.91718-0.31833 1.0104 0.16392 0.09535 0.62433 0.45933 2.1886-2.2566 0.57118-0.99213 0.90281-1.8944 1.0957-2.6426 0.19758 0.51185 0.45258 1.029 0.73579 1.3548 0.16511 0.19095 0.38206 0.37287 0.62286 0.54148-0.18961 0.034543-0.40745 0.076553-0.70257 0.13066-1.0807 0.196-1.6186 0.6211-1.6305 0.6306 0.00871-0.0028 1.2654-0.40028 2.6005-0.58521 0.52512 0.31949 1.1283 0.56526 1.6271 0.66493 0.77823 0.15745 0.99034-0.12784 1.0154-0.16609-0.03033 0.02511-0.13146 0.07217-0.45289 0.04484-0.25826-0.0213-0.96435-0.22097-1.6798-0.60458 1.4814-0.13689 1.9934 0.013631 2.1254 0.11903 0.13178 0.10607 0.13177 0.22312 0.13177 0.22312s0.16956-0.16391 0.05813-0.32998c-0.09428-0.17249-0.23912-0.316-1.4273-0.27959-0.58913 0.017483-0.90638 0.037718-1.2097 0.078064-0.35994-0.22392-0.70665-0.49091-0.97994-0.8144-0.36635-0.43365-0.59032-0.93277-0.73636-1.424 0.21884-1.0538 0.15076-1.7062 0.15004-1.713 0 0-0.11116 0.50502-0.28236 1.171-0.098224-0.50338-0.13198-0.96747-0.16-1.2972-0.059998-0.7564 0.27844-0.54655 0.32664-0.45012 0.077139 0.062141 0.11461 0.26907 0.11461 0.26907s-0.026668-0.30895-0.16166-0.44181c-0.050222-0.049417-0.098388-0.080382-0.14616-0.08803zm-0.91352 5.624c-3.02e-5 1e-5 -0.00332 0.0011-0.00332 0.0011l-0.00111 0.0022s0.00429-0.0032 0.00443-0.0033z" fill="#ffffff"/>
</svg>
